svg/emoji_u1fa7a.svg

<?xml version="1.0" encoding="utf-8"?>
<!-- Generator: Adobe Illustrator 24.1.2, SVG Export Plug-In . SVG Version: 6.00 Build 0)  -->
<svg version="1.1" id="Layer_5" xmlns="http://www.w3.org/2000/svg" xmlns:xlink="http://www.w3.org/1999/xlink" x="0px" y="0px"
	 viewBox="0 0 128 128" style="enable-background:new 0 0 128 128;" xml:space="preserve">
<g>
	<g>
		<path style="fill:none;stroke:#BDBDBD;stroke-width:6;stroke-linejoin:round;stroke-miterlimit:10;" d="M60.55,98.3
			c-16.79,4.83-26.01-18.83-29.53-27.27C24,54.17,5.69,42.41,7.04,30s16.6-11.17,16.6-11.17"/>
		<path style="fill:none;stroke:#BDBDBD;stroke-width:6;stroke-linejoin:round;stroke-miterlimit:10;" d="M59.5,98.3
			c16.89-4.48,11.39-28.91,10.07-37.96c-2.63-18.08,7.04-37.57-0.49-47.52S49.1,11.76,49.1,11.76"/>
		<g>
			<circle style="fill:#878787;" cx="101.84" cy="32.23" r="15.25"/>
		</g>
		<circle style="fill:#BDBDBD;" cx="102.38" cy="31.13" r="13.41"/>
		<path style="fill:none;stroke:#03A9F4;stroke-width:8;stroke-miterlimit:10;" d="M69.39,58.93c-0.89,6.74,10.14,31.36-6.97,38.1
			c-19.16,7.56-26.31-20.55-31.39-26"/>
		<path style="fill:none;stroke:#03A9F4;stroke-width:5;stroke-miterlimit:10;" d="M32.63,73.54c0,0,10.77,11.36,23.4,6.15
			C68,74.75,69.86,61.64,69.86,61.64"/>
		<path style="opacity:0.22;fill:#212121;" d="M100.96,21.43c-5.24,1.22-8.49,6.45-7.28,11.69c0.18,0.78,0.46,1.54,0.83,2.26
			c0.29,0.57,0.68,1.34,0.68,1.34c-1.92,2.51-3.48,3.47-4.01,6.38c1.36,1.33,2.95,2.39,4.69,3.13c0-0.01,0.01-0.02,0.01-0.03
			c0,0.01,0.01,0.02,0.01,0.04c2.87,1.22,6.14,1.59,9.42,0.83c0.37-0.09,0.72-0.2,1.07-0.31l-0.31-2.8c0,0,0.4-3.55,0.49-3.74
			c0.23-0.45,1.16-0.69,1.64-0.97c1.16-0.7,2.17-1.65,2.95-2.76c1.57-2.25,2.12-5.11,1.5-7.78
			C111.43,23.47,106.19,20.21,100.96,21.43z"/>
		<path style="fill:none;stroke:#03A9F4;stroke-width:8;stroke-miterlimit:10;" d="M60.42,96.03c9.59,21.97,24.29,25.08,35.15,23.19
			c9.54-1.67,22.17-10.22,22.14-25.72c-0.04-18.68-12.5-17.5-19.25-29.47c-8.41-14.92,3.05-28.62,3.05-28.62"/>
		<path style="opacity:0.22;fill:#212121;" d="M94.74,38.77c0,0,1.9-0.97,3.72,0.07c2.88,1.64,3.16,3.98,3.16,3.98
			s1.74-3.46,2.67-4.4c0.92-0.95-5.57-5.66-7.04-3.85S94.74,38.77,94.74,38.77z"/>
		<path style="fill:#616161;" d="M27.83,14.04c-1.5,0.01-2.82,0.73-3.69,1.82l-1.24-0.98c-1.13-0.89-2.79-0.08-2.78,1.36l0.04,5.19
			c0.01,1.44,1.68,2.23,2.79,1.32l1.21-0.98c0.88,1.09,2.22,1.8,3.73,1.79c2.63-0.02,4.75-2.17,4.73-4.8S30.46,14.02,27.83,14.04z"
			/>
		<path style="fill:#616161;" d="M53.13,12.22l-2.65-4.46c-0.74-1.24-2.58-1.07-3.08,0.27l-0.55,1.48c-1.31-0.49-2.81-0.42-4.1,0.35
			c-2.26,1.34-3.01,4.27-1.66,6.53c1.34,2.26,4.27,3.01,6.53,1.66c1.3-0.77,2.08-2.07,2.27-3.46l1.54,0.21
			C52.85,14.99,53.87,13.46,53.13,12.22z"/>
		<circle style="fill:#424242;" cx="104.19" cy="29.3" r="9.12"/>
		<g>
			<circle style="fill:#D1D1D1;" cx="104.65" cy="28.59" r="7.08"/>
		</g>
		<path style="fill:#757575;" d="M42.37,15.11c-0.83-1.19-0.67-3.41,0.76-4.42s3.59-0.57,4.42,0.76c0.93,1.48-1.5,0.15-2.93,1.16
			S43.37,16.55,42.37,15.11z"/>
	</g>
	<path style="fill:#757575;" d="M25.01,17.25c0.36-1.41,2.13-2.74,3.83-2.32s2.78,2.33,2.32,3.83c-0.51,1.67-1.1-1.04-2.8-1.45
		C26.67,16.89,24.58,18.95,25.01,17.25z"/>
</g>
</svg>

<?xml version="1.0" encoding="UTF-8" standalone="no"?>
<!DOCTYPE svg PUBLIC "-//W3C//DTD SVG 1.1//EN" "http://www.w3.org/Graphics/SVG/1.1/DTD/svg11.dtd">
<svg width="100%" height="100%" viewBox="0 0 128 128" version="1.1" xmlns="http://www.w3.org/2000/svg" xmlns:xlink="http://www.w3.org/1999/xlink" xml:space="preserve" xmlns:serif="http://www.serif.com/" style="fill-rule:evenodd;clip-rule:evenodd;stroke-linejoin:round;stroke-miterlimit:10;">
    <g>
        <g>
            <path d="M60.55,98.3C43.76,103.13 34.54,79.47 31.02,71.03C24,54.17 5.69,42.41 7.04,30C8.39,17.59 23.64,18.83 23.64,18.83" style="fill:none;fill-rule:nonzero;stroke:rgb(147,177,187);stroke-width:6px;"/>
            <path d="M59.5,98.3C76.39,93.82 70.89,69.39 69.57,60.34C66.94,42.26 76.61,22.77 69.08,12.82C61.55,2.87 49.1,11.76 49.1,11.76" style="fill:none;fill-rule:nonzero;stroke:rgb(147,177,187);stroke-width:6px;"/>
            <g>
                <circle cx="101.84" cy="32.23" r="15.25" style="fill:rgb(90,129,142);"/>
            </g>
            <circle cx="102.38" cy="31.13" r="13.41" style="fill:rgb(147,177,187);"/>
            <path d="M69.39,58.93C68.5,65.67 79.53,90.29 62.42,97.03C43.26,104.59 36.11,76.48 31.03,71.03" style="fill:none;fill-rule:nonzero;stroke:rgb(98,205,234);stroke-width:8px;stroke-linejoin:miter;"/>
            <path d="M32.63,73.54C32.63,73.54 43.4,84.9 56.03,79.69C68,74.75 69.86,61.64 69.86,61.64" style="fill:none;fill-rule:nonzero;stroke:rgb(98,205,234);stroke-width:5px;stroke-linejoin:miter;"/>
            <path d="M100.96,21.43C95.72,22.65 92.47,27.88 93.68,33.12C93.86,33.9 94.14,34.66 94.51,35.38C94.8,35.95 95.19,36.72 95.19,36.72C93.27,39.23 91.71,40.19 91.18,43.1C92.54,44.43 94.13,45.49 95.87,46.23C95.87,46.22 95.88,46.21 95.88,46.2C95.88,46.21 95.89,46.22 95.89,46.24C98.76,47.46 102.03,47.83 105.31,47.07C105.68,46.98 106.03,46.87 106.38,46.76L106.07,43.96C106.07,43.96 106.47,40.41 106.56,40.22C106.79,39.77 107.72,39.53 108.2,39.25C109.36,38.55 110.37,37.6 111.15,36.49C112.72,34.24 113.27,31.38 112.65,28.71C111.43,23.47 106.19,20.21 100.96,21.43Z" style="fill:rgb(33,33,33);fill-opacity:0.22;fill-rule:nonzero;"/>
            <path d="M60.42,96.03C70.01,118 84.71,121.11 95.57,119.22C105.11,117.55 117.74,109 117.71,93.5C117.67,74.82 105.21,76 98.46,64.03C90.05,49.11 101.51,35.41 101.51,35.41" style="fill:none;fill-rule:nonzero;stroke:rgb(98,205,234);stroke-width:8px;stroke-linejoin:miter;"/>
            <path d="M94.74,38.77C94.74,38.77 96.64,37.8 98.46,38.84C101.34,40.48 101.62,42.82 101.62,42.82C101.62,42.82 103.36,39.36 104.29,38.42C105.21,37.47 98.72,32.76 97.25,34.57C95.78,36.38 94.74,38.77 94.74,38.77Z" style="fill:rgb(33,33,33);fill-opacity:0.22;fill-rule:nonzero;"/>
            <path d="M27.83,14.04C26.33,14.05 25.01,14.77 24.14,15.86L22.9,14.88C21.77,13.99 20.11,14.8 20.12,16.24L20.16,21.43C20.17,22.87 21.84,23.66 22.95,22.75L24.16,21.77C25.04,22.86 26.38,23.57 27.89,23.56C30.52,23.54 32.64,21.39 32.62,18.76C32.6,16.13 30.46,14.02 27.83,14.04Z" style="fill:rgb(43,59,64);fill-rule:nonzero;"/>
            <path d="M53.13,12.22L50.48,7.76C49.74,6.52 47.9,6.69 47.4,8.03L46.85,9.51C45.54,9.02 44.04,9.09 42.75,9.86C40.49,11.2 39.74,14.13 41.09,16.39C42.43,18.65 45.36,19.4 47.62,18.05C48.92,17.28 49.7,15.98 49.89,14.59L51.43,14.8C52.85,14.99 53.87,13.46 53.13,12.22Z" style="fill:rgb(43,59,64);fill-rule:nonzero;"/>
            <circle cx="104.19" cy="29.3" r="9.12" style="fill:rgb(43,59,64);"/>
            <g>
                <circle cx="104.65" cy="28.59" r="7.08" style="fill:rgb(236,240,241);"/>
            </g>
            <path d="M42.37,15.11C41.54,13.92 41.7,11.7 43.13,10.69C44.56,9.68 46.72,10.12 47.55,11.45C48.48,12.93 46.05,11.6 44.62,12.61C43.19,13.62 43.37,16.55 42.37,15.11Z" style="fill:rgb(75,107,117);fill-rule:nonzero;"/>
        </g>
        <path d="M25.01,17.25C25.37,15.84 27.14,14.51 28.84,14.93C30.54,15.35 31.62,17.26 31.16,18.76C30.65,20.43 30.06,17.72 28.36,17.31C26.67,16.89 24.58,18.95 25.01,17.25Z" style="fill:rgb(75,107,117);fill-rule:nonzero;"/>
    </g>
</svg>
